X: 661
T: Sleepy Maggie   #2
R: reel
%S: s:4 b:16(4+4+4+4)
B: Francis O'Neill: "The Dance Music of Ireland" (1907) #661
Z: Frank Nordberg - http://www.musicaviva.com
F: http://www.musicaviva.com/abc/tunes/ireland/oneill-1001/0661/oneill-1001-0661-1.abc
%m: Tn2 = (3n/o/n/ m/n/
N: Compacted via repeats [JC]
M: C|
L: 1/8
K: D
%%slurgraces 1
%%graceslurs 1
"^A"\
|: f2(de) fBde | Tf2(df) eAce | {g}f2(de) fBde | fgaf eAce :|
"^B"\
[| fBdB fBde | fBdB eAce | fBdB eBde | f^gaf eAce ||
|| fBdB fBde | fBdB eAce | dcBc defg | abaf  eAce |]
"^C"\
|: fBbB fBde | fBbB aAce | fBbB aB^gB | fB^gB aAce :| 
%
% Note from the transcriber:
N: The repeat sign at the end probably means that the four last bars are to be repeated.
% (Initial repeat added to the C part by JC.)
